X:1
T:[ID 3v-41a (=3-74a)]
T:[ID 3v-41a (=3-74a)]
T:Bezeichnung standardisiert: Sonata Andante Sonata Andante
T:Urheber unbekannt Datum in der hier transkribierten schriftlichen Quelle: 1767
C:Urheber unbekannt
C:Datum in der hier transkribierten schriftlichen Quelle: 1767
L:1/8
M:2/4
K:G
V:1 bass 
V:1
 G,,G,,G,,G,, | D,F,G,G,, | C,2 D,D,, | !/!G,,4 | D,F,G,G,, | C,2 D,D,, | G,,C, D,D,, | G,,G,G,G, | %8
 DA,F,D, | G,,2 z2 | A,,2 z2 | !/!A,,4 | D,D,D,F, | G,E, A,A,, | D,DDD | DD,D,D, | A,A,A,,A,, | %17
 D,/A,,/A,,/A,,/ A,,2 | !//!A,,4 | !//!A,,4 | A,,/A,,/A,,/A,,/ !//!A,,2 | !//!A,,4 | !//!A,,4 | %23
 !//!A,,4 | !//!A,,4 | D,F,A,A,, | D,D,D,D, | D,,D, D,, z :: B,,B,,B,,B,, | E,2 B,B,, | E, z2 ^D, | %31
 E,2 B,B,, | E,E,/F,/ E,/D,/C,/B,,/ | !//!A,,4 | D,2 A,A,, | D,2 z C, | D,2 A,A,, | D,2 z2 | %38
 z D,/E,/ F,/G,/A,/F,/ | D,2 z D, | G,,2 z2 | G,,2 z2 | D,/D,/D,/D,/ !//!D,2 | !//!D,4 | !//!D,4 | %45
 !//!D,4 | !//!D,4 | !//!D,4 | !//!D,4 | !//!D,4 | G,,2 D,D,, | G,,2 z F,, | G,,2 D,D,, | %53
 G,,G,, G,,G,, | G,,G, G,, z/ :| %55

